assets/icons/bedroom.svg

<svg width="60" height="60" viewBox="0 0 60 60" fill="none" xmlns="http://www.w3.org/2000/svg">
<path d="M7.04161 8.00106C6.4938 8.05604 6.07698 8.51733 6.07746 9.068V26.6309H4.90823C2.20882 26.6309 0 28.8408 0 31.5415V45.1665L0.000478016 45.166C0.00143411 45.7549 0.478012 46.2324 1.06693 46.2348H4.18938V51.0953C4.18316 51.3831 4.29311 51.6613 4.49435 51.8673C4.69607 52.0733 4.97189 52.189 5.26013 52.189C5.5479 52.189 5.82419 52.0733 6.02544 51.8673C6.22715 51.6613 6.33711 51.3831 6.33089 51.0953V46.2348H53.7012V51.0953C53.6945 51.3831 53.8044 51.6618 54.0061 51.8678C54.2074 52.0738 54.4837 52.19 54.7719 52.19C55.0602 52.19 55.336 52.0738 55.5377 51.8678C55.7389 51.6618 55.8489 51.3831 55.8427 51.0953V46.2353H58.9336V46.2348C59.5225 46.2324 59.999 45.7549 60 45.166V31.5411C60 28.8417 57.7997 26.6304 55.0998 26.6304L53.954 26.6309V9.06801C53.9517 8.47623 53.4708 7.99917 52.879 8.00108H7.14482C7.11041 7.99964 7.07647 7.99964 7.04205 8.00108L7.04161 8.00106ZM8.21897 10.1426H51.8104V26.631H46.5316V20.9173C46.5316 19.4656 45.3299 18.2615 43.8758 18.2615H31.5908C30.9957 18.2615 30.4484 18.4694 30.0015 18.8074C29.556 18.4694 29.0096 18.2615 28.4144 18.2615H16.1319C14.6778 18.2615 13.4761 19.4661 13.4761 20.9173V26.631H8.21836L8.21897 10.1426ZM16.1325 20.4028H28.415C28.7191 20.4028 28.9294 20.6136 28.9294 20.9171L28.9299 26.6308H15.6182V20.9171C15.6182 20.6107 15.829 20.4028 16.1325 20.4028H16.1325ZM31.5918 20.4028H43.8768C44.1808 20.4028 44.3911 20.6107 44.3911 20.9171V26.6308H31.0721V20.9171C31.0721 20.6136 31.2886 20.4028 31.5927 20.4028H31.5918ZM4.90856 28.7742H55.1007C56.6514 28.7742 57.8594 29.9903 57.8594 31.5409L57.8589 33.9358H2.14283V31.5409C2.14283 29.9917 3.35891 28.7742 4.90955 28.7742H4.90856ZM2.14184 36.0774H57.8591V44.0913H2.14184V36.0774Z" fill="#967E76"/>
</svg>

<svg xmlns="http://www.w3.org/2000/svg" viewBox="0 0 60 60" id="icon" fill="currentColor">
<path d="M7.042 8.001a1.071 1.071 0 0 0-.965 1.067v17.563H4.908C2.208 26.63 0 28.84 0 31.54v13.625a1.07 1.07 0 0 0 1.067 1.069h3.122v4.86a1.072 1.072 0 1 0 2.142 0v-4.86H53.7v4.86a1.069 1.069 0 0 0 1.07 1.095 1.072 1.072 0 0 0 1.072-1.095v-4.86h3.09A1.07 1.07 0 0 0 60 45.166V31.541c0-2.7-2.2-4.91-4.9-4.91h-1.146V9.068a1.07 1.07 0 0 0-1.075-1.067H7.145a1.223 1.223 0 0 0-.103 0Zm1.177 2.142H51.81V26.63h-5.278v-5.714a2.674 2.674 0 0 0-2.656-2.655H31.59c-.595 0-1.143.207-1.59.545a2.618 2.618 0 0 0-1.587-.545H16.132a2.674 2.674 0 0 0-2.656 2.655v5.714H8.218l.001-16.488Zm7.914 10.26h12.282c.304 0 .514.21.514.514v5.714H15.62v-5.714a.49.49 0 0 1 .514-.514Zm15.459 0h12.285a.49.49 0 0 1 .514.514v5.714H31.072v-5.714c0-.303.217-.514.52-.514ZM4.909 28.774H55.1c1.55 0 2.758 1.216 2.758 2.767v2.395H2.143V31.54a2.74 2.74 0 0 1 2.767-2.767h-.001Zm-2.767 7.303h55.717v8.014H2.142v-8.014Z"/>
</svg>
